P3
48 48
255
17 26 25 17 26 25 17 26 25 17 26 25 17 26 25 17 26 25 17 26 25 17 26 25 17 26 25 17 26 25 17 26 25 17 26 25 17 26 25 17 26 25 17 26 25 17 26 25 17 26 25 17 26 25 17 26 25 17 26 25 17 26 25 17 26 25 17 26 25 17 26 25 17 26 25 17 26 25 17 26 25 17 26 25 17 26 25 17 26 25 17 26 25 17 26 25 17 26 25 17 26 25 17 26 25 17 26 25 17 26 25 17 26 25 17 26 25 17 26 25 17 26 25 17 26 25 17 26 25 17 26 25 17 26 25 17 26 25 17 26 25 17 26 25
17 26 25 17 26 25 17 26 25 17 26 25 17 26 25 17 26 25 17 26 25 17 26 25 17 26 25 17 26 25 17 26 25 17 26 25 17 26 25 17 26 25 17 26 25 17 26 25 17 26 25 17 26 25 17 26 25 17 26 25 17 26 25 17 26 25 17 26 25 17 26 25 17 26 25 17 26 25 17 26 25 17 26 25 17 26 25 17 26 25 17 26 25 17 26 25 17 26 25 17 26 25 17 26 25 17 26 25 17 26 25 17 26 25 17 26 25 17 26 25 17 26 25 17 26 25 17 26 25 17 26 25 17 26 25 17 26 25 17 26 25 17 26 25
17 26 25 17 26 25 17 26 25 17 26 25 17 26 25 17 26 25 17 26 25 17 26 25 17 26 25 17 26 25 17 26 25 17 26 25 17 26 25 17 26 25 17 26 25 17 26 25 17 26 25 17 26 25 17 26 25 17 26 25 17 26 25 17 26 25 17 26 25 17 26 25 17 26 25 17 26 25 17 26 25 17 26 25 17 26 25 17 26 25 17 26 25 17 26 25 17 26 25 17 26 25 17 26 25 17 26 25 17 26 25 17 26 25 17 26 25 17 26 25 17 26 25 17 26 25 17 26 25 17 26 25 17 26 25 17 26 25 17 26 25 17 26 25
17 26 25 17 26 25 17 26 25 17 26 25 17 26 25 17 26 25 17 26 25 17 26 25 17 26 25 17 26 25 17 26 25 17 26 25 17 26 25 17 26 25 17 26 25 17 26 25 17 26 25 17 26 25 17 26 25 17 26 25 17 26 25 17 26 25 17 26 25 17 26 25 17 26 25 17 26 25 17 26 25 17 26 25 17 26 25 17 26 25 17 26 25 17 26 25 17 26 25 17 26 25 17 26 25 17 26 25 17 26 25 17 26 25 17 26 25 17 26 25 17 26 25 17 26 25 17 26 25 17 26 25 17 26 25 17 26 25 17 26 25 17 26 25
17 26 25 17 26 25 17 26 25 17 26 25 17 26 25 17 26 25 17 26 25 17 26 25 17 26 25 17 26 25 17 26 25 17 26 25 17 26 25 17 26 25 17 26 25 17 26 25 17 26 25 17 26 25 17 26 25 17 26 25 17 26 25 17 26 25 17 26 25 17 26 25 17 26 25 17 26 25 17 26 25 17 26 25 17 26 25 17 26 25 17 26 25 17 26 25 17 26 25 17 26 25 17 26 25 17 26 25 17 26 25 17 26 25 17 26 25 17 26 25 17 26 25 17 26 25 17 26 25 17 26 25 17 26 25 17 26 25 17 26 25 17 26 25
17 26 25 17 26 25 17 26 25 17 26 25 17 26 25 17 26 25 17 26 25 17 26 25 17 26 25 17 26 25 17 26 25 17 26 25 17 26 25 17 26 25 17 26 25 17 26 25 17 26 25 17 26 25 17 26 25 17 26 25 17 26 25 17 26 25 17 26 25 17 26 25 17 26 25 17 26 25 17 26 25 17 26 25 17 26 25 17 26 25 17 26 25 17 26 25 17 26 25 17 26 25 17 26 25 17 26 25 17 26 25 17 26 25 17 26 25 17 26 25 17 26 25 17 26 25 17 26 25 17 26 25 17 26 25 17 26 25 17 26 25 17 26 25
17 26 25 17 26 25 17 26 25 17 26 25 17 26 25 17 26 25 17 26 25 17 26 25 17 26 25 17 26 25 17 26 25 17 26 25 17 26 25 17 26 25 17 26 25 17 26 25 17 26 25 17 26 25 17 26 25 17 26 25 17 26 25 17 26 25 17 26 25 240 207 120 240 207 120 240 207 120 17 26 25 17 26 25 17 26 25 17 26 25 17 26 25 17 26 25 17 26 25 17 26 25 17 26 25 17 26 25 17 26 25 17 26 25 17 26 25 17 26 25 17 26 25 17 26 25 17 26 25 17 26 25 17 26 25 17 26 25 17 26 25 17 26 25
17 26 25 17 26 25 17 26 25 17 26 25 17 26 25 17 26 25 17 26 25 17 26 25 17 26 25 17 26 25 17 26 25 17 26 25 17 26 25 17 26 25 17 26 25 17 26 25 17 26 25 17 26 25 17 26 25 17 26 25 17 26 25 17 26 25 240 207 120 240 207 120 240 207 120 240 207 120 240 207 120 17 26 25 17 26 25 17 26 25 17 26 25 240 207 120 240 207 120 240 207 120 240 207 120 240 207 120 240 207 120 240 207 120 240 207 120 17 26 25 17 26 25 17 26 25 17 26 25 17 26 25 17 26 25 17 26 25 17 26 25 17 26 25
17 26 25 17 26 25 17 26 25 17 26 25 17 26 25 17 26 25 17 26 25 17 26 25 17 26 25 17 26 25 17 26 25 17 26 25 17 26 25 17 26 25 17 26 25 17 26 25 17 26 25 17 26 25 17 26 25 17 26 25 17 26 25 240 207 120 240 207 120 240 207 120 240 207 120 240 207 120 240 207 120 240 207 120 17 26 25 17 26 25 17 26 25 240 207 120 240 207 120 240 207 120 240 207 120 240 207 120 240 207 120 240 207 120 240 207 120 17 26 25 17 26 25 17 26 25 17 26 25 17 26 25 17 26 25 17 26 25 17 26 25 17 26 25
17 26 25 17 26 25 17 26 25 17 26 25 17 26 25 17 26 25 17 26 25 17 26 25 17 26 25 17 26 25 17 26 25 17 26 25 17 26 25 17 26 25 17 26 25 17 26 25 17 26 25 17 26 25 17 26 25 240 207 120 240 207 120 240 207 120 240 207 120 240 207 120 240 207 120 240 207 120 240 207 120 240 207 120 240 207 120 240 207 120 17 26 25 240 207 120 240 207 120 240 207 120 240 207 120 240 207 120 240 207 120 240 207 120 240 207 120 17 26 25 17 26 25 17 26 25 17 26 25 17 26 25 17 26 25 17 26 25 17 26 25 17 26 25
17 26 25 17 26 25 17 26 25 17 26 25 17 26 25 17 26 25 17 26 25 17 26 25 17 26 25 17 26 25 17 26 25 17 26 25 17 26 25 17 26 25 17 26 25 17 26 25 17 26 25 17 26 25 240 207 120 240 207 120 240 207 120 240 207 120 240 207 120 240 207 120 17 26 25 240 207 120 240 207 120 240 207 120 240 207 120 240 207 120 240 207 120 240 207 120 240 207 120 240 207 120 17 26 25 17 26 25 240 207 120 240 207 120 240 207 120 17 26 25 17 26 25 17 26 25 17 26 25 17 26 25 17 26 25 17 26 25 17 26 25 17 26 25
17 26 25 17 26 25 17 26 25 17 26 25 17 26 25 17 26 25 17 26 25 17 26 25 17 26 25 17 26 25 17 26 25 17 26 25 17 26 25 17 26 25 17 26 25 17 26 25 17 26 25 240 207 120 240 207 120 240 207 120 240 207 120 240 207 120 240 207 120 17 26 25 17 26 25 17 26 25 240 207 120 240 207 120 240 207 120 240 207 120 240 207 120 240 207 120 240 207 120 240 207 120 17 26 25 17 26 25 240 207 120 240 207 120 240 207 120 17 26 25 17 26 25 17 26 25 17 26 25 17 26 25 17 26 25 17 26 25 17 26 25 17 26 25
17 26 25 17 26 25 17 26 25 17 26 25 17 26 25 17 26 25 17 26 25 17 26 25 17 26 25 17 26 25 17 26 25 17 26 25 17 26 25 17 26 25 17 26 25 17 26 25 240 207 120 240 207 120 240 207 120 240 207 120 240 207 120 240 207 120 17 26 25 17 26 25 17 26 25 17 26 25 17 26 25 240 207 120 240 207 120 240 207 120 240 207 120 240 207 120 240 207 120 240 207 120 17 26 25 17 26 25 240 207 120 240 207 120 240 207 120 17 26 25 17 26 25 17 26 25 17 26 25 17 26 25 17 26 25 17 26 25 17 26 25 17 26 25
17 26 25 17 26 25 17 26 25 17 26 25 17 26 25 17 26 25 17 26 25 17 26 25 17 26 25 17 26 25 17 26 25 17 26 25 17 26 25 17 26 25 17 26 25 240 207 120 240 207 120 240 207 120 240 207 120 240 207 120 240 207 120 17 26 25 17 26 25 17 26 25 17 26 25 17 26 25 17 26 25 17 26 25 240 207 120 240 207 120 240 207 120 240 207 120 240 207 120 240 207 120 17 26 25 17 26 25 240 207 120 240 207 120 240 207 120 17 26 25 17 26 25 17 26 25 17 26 25 17 26 25 17 26 25 17 26 25 17 26 25 17 26 25
17 26 25 17 26 25 17 26 25 17 26 25 17 26 25 17 26 25 17 26 25 17 26 25 17 26 25 17 26 25 17 26 25 17 26 25 17 26 25 17 26 25 240 207 120 240 207 120 240 207 120 240 207 120 240 207 120 240 207 120 240 207 120 240 207 120 240 207 120 240 207 120 240 207 120 240 207 120 240 207 120 240 207 120 240 207 120 240 207 120 240 207 120 240 207 120 240 207 120 240 207 120 240 207 120 17 26 25 240 207 120 240 207 120 240 207 120 17 26 25 17 26 25 17 26 25 17 26 25 17 26 25 17 26 25 17 26 25 17 26 25 17 26 25
17 26 25 17 26 25 17 26 25 17 26 25 17 26 25 17 26 25 17 26 25 17 26 25 17 26 25 17 26 25 17 26 25 17 26 25 17 26 25 240 207 120 240 207 120 240 207 120 240 207 120 240 207 120 240 207 120 240 207 120 240 207 120 240 207 120 240 207 120 240 207 120 19 138 91 240 207 120 240 207 120 240 207 120 240 207 120 240 207 120 240 207 120 240 207 120 240 207 120 240 207 120 240 207 120 240 207 120 240 207 120 240 207 120 240 207 120 17 26 25 17 26 25 17 26 25 17 26 25 17 26 25 17 26 25 17 26 25 17 26 25 17 26 25
17 26 25 17 26 25 17 26 25 17 26 25 17 26 25 17 26 25 17 26 25 17 26 25 17 26 25 17 26 25 17 26 25 17 26 25 240 207 120 240 207 120 240 207 120 240 207 120 240 207 120 240 207 120 240 207 120 240 207 120 19 138 91 19 138 91 19 138 91 19 138 91 19 138 91 19 138 91 19 138 91 19 138 91 19 138 91 240 207 120 240 207 120 240 207 120 240 207 120 240 207 120 240 207 120 240 207 120 240 207 120 240 207 120 240 207 120 17 26 25 17 26 25 17 26 25 17 26 25 17 26 25 17 26 25 17 26 25 17 26 25 17 26 25
17 26 25 17 26 25 17 26 25 17 26 25 17 26 25 17 26 25 17 26 25 17 26 25 17 26 25 17 26 25 17 26 25 240 207 120 240 207 120 240 207 120 240 207 120 240 207 120 240 207 120 240 207 120 240 207 120 19 138 91 19 138 91 19 138 91 19 138 91 19 138 91 19 138 91 19 138 91 19 138 91 19 138 91 19 138 91 19 138 91 240 207 120 240 207 120 240 207 120 240 207 120 240 207 120 240 207 120 240 207 120 240 207 120 240 207 120 17 26 25 17 26 25 17 26 25 17 26 25 17 26 25 17 26 25 17 26 25 17 26 25 17 26 25
17 26 25 17 26 25 17 26 25 17 26 25 17 26 25 17 26 25 17 26 25 17 26 25 17 26 25 17 26 25 240 207 120 240 207 120 240 207 120 240 207 120 240 207 120 240 207 120 240 207 120 240 207 120 19 138 91 19 138 91 19 138 91 19 138 91 19 138 91 19 138 91 19 138 91 19 138 91 19 138 91 19 138 91 19 138 91 19 138 91 19 138 91 240 207 120 240 207 120 240 207 120 240 207 120 240 207 120 240 207 120 240 207 120 240 207 120 17 26 25 17 26 25 17 26 25 17 26 25 17 26 25 17 26 25 17 26 25 17 26 25 17 26 25
17 26 25 17 26 25 17 26 25 17 26 25 17 26 25 17 26 25 17 26 25 17 26 25 17 26 25 240 207 120 240 207 120 240 207 120 240 207 120 240 207 120 240 207 120 240 207 120 240 207 120 19 138 91 19 138 91 19 138 91 19 138 91 19 138 91 19 138 91 19 138 91 19 138 91 19 138 91 19 138 91 19 138 91 19 138 91 19 138 91 19 138 91 19 138 91 240 207 120 240 207 120 240 207 120 240 207 120 240 207 120 240 207 120 240 207 120 240 207 120 17 26 25 17 26 25 17 26 25 17 26 25 17 26 25 17 26 25 17 26 25 17 26 25
17 26 25 17 26 25 17 26 25 17 26 25 17 26 25 17 26 25 17 26 25 17 26 25 240 207 120 240 207 120 240 207 120 240 207 120 240 207 120 240 207 120 240 207 120 240 207 120 19 138 91 19 138 91 19 138 91 19 138 91 19 138 91 19 138 91 19 138 91 19 138 91 240 207 120 19 138 91 19 138 91 19 138 91 19 138 91 19 138 91 19 138 91 19 138 91 19 138 91 240 207 120 240 207 120 240 207 120 240 207 120 240 207 120 240 207 120 240 207 120 240 207 120 17 26 25 17 26 25 17 26 25 17 26 25 17 26 25 17 26 25 17 26 25
17 26 25 17 26 25 17 26 25 17 26 25 17 26 25 17 26 25 17 26 25 240 207 120 240 207 120 240 207 120 240 207 120 240 207 120 240 207 120 17 26 25 240 207 120 240 207 120 19 138 91 19 138 91 19 138 91 19 138 91 19 138 91 19 138 91 240 207 120 240 207 120 240 207 120 240 207 120 240 207 120 19 138 91 19 138 91 19 138 91 19 138 91 19 138 91 19 138 91 240 207 120 240 207 120 17 26 25 240 207 120 240 207 120 240 207 120 240 207 120 240 207 120 240 207 120 17 26 25 17 26 25 17 26 25 17 26 25 17 26 25 17 26 25
17 26 25 17 26 25 17 26 25 17 26 25 17 26 25 17 26 25 17 26 25 240 207 120 240 207 120 240 207 120 240 207 120 240 207 120 240 207 120 17 26 25 240 207 120 240 207 120 19 138 91 19 138 91 19 138 91 19 138 91 19 138 91 19 138 91 240 207 120 240 207 120 240 207 120 240 207 120 240 207 120 19 138 91 19 138 91 19 138 91 19 138 91 19 138 91 19 138 91 240 207 120 240 207 120 17 26 25 240 207 120 240 207 120 240 207 120 240 207 120 240 207 120 240 207 120 17 26 25 17 26 25 17 26 25 17 26 25 17 26 25 17 26 25
17 26 25 17 26 25 17 26 25 17 26 25 17 26 25 17 26 25 17 26 25 240 207 120 240 207 120 240 207 120 240 207 120 240 207 120 240 207 120 17 26 25 240 207 120 240 207 120 19 138 91 19 138 91 19 138 91 19 138 91 19 138 91 240 207 120 240 207 120 240 207 120 240 207 120 240 207 120 240 207 120 240 207 120 19 138 91 19 138 91 19 138 91 19 138 91 19 138 91 240 207 120 240 207 120 17 26 25 240 207 120 240 207 120 240 207 120 240 207 120 240 207 120 240 207 120 17 26 25 17 26 25 17 26 25 17 26 25 17 26 25 17 26 25
17 26 25 17 26 25 17 26 25 17 26 25 17 26 25 17 26 25 17 26 25 17 26 25 17 26 25 17 26 25 240 207 120 240 207 120 240 207 120 240 207 120 240 207 120 19 138 91 19 138 91 19 138 91 19 138 91 19 138 91 19 138 91 19 138 91 240 207 120 240 207 120 240 207 120 240 207 120 240 207 120 19 138 91 19 138 91 19 138 91 19 138 91 19 138 91 19 138 91 19 138 91 240 207 120 240 207 120 240 207 120 240 207 120 240 207 120 17 26 25 17 26 25 17 26 25 17 26 25 17 26 25 17 26 25 17 26 25 17 26 25 17 26 25
17 26 25 17 26 25 17 26 25 17 26 25 17 26 25 17 26 25 17 26 25 17 26 25 17 26 25 17 26 25 240 207 120 240 207 120 240 207 120 17 26 25 240 207 120 240 207 120 19 138 91 19 138 91 19 138 91 19 138 91 19 138 91 240 207 120 240 207 120 240 207 120 240 207 120 240 207 120 240 207 120 240 207 120 19 138 91 19 138 91 19 138 91 19 138 91 19 138 91 240 207 120 240 207 120 17 26 25 240 207 120 240 207 120 240 207 120 17 26 25 17 26 25 17 26 25 17 26 25 17 26 25 17 26 25 17 26 25 17 26 25 17 26 25
17 26 25 17 26 25 17 26 25 17 26 25 17 26 25 17 26 25 17 26 25 17 26 25 17 26 25 17 26 25 240 207 120 240 207 120 240 207 120 17 26 25 240 207 120 240 207 120 19 138 91 19 138 91 19 138 91 19 138 91 19 138 91 240 207 120 240 207 120 240 207 120 240 207 120 240 207 120 240 207 120 240 207 120 19 138 91 19 138 91 19 138 91 19 138 91 19 138 91 240 207 120 240 207 120 17 26 25 240 207 120 240 207 120 240 207 120 17 26 25 17 26 25 17 26 25 17 26 25 17 26 25 17 26 25 17 26 25 17 26 25 17 26 25
17 26 25 17 26 25 17 26 25 17 26 25 17 26 25 17 26 25 17 26 25 17 26 25 17 26 25 17 26 25 240 207 120 240 207 120 240 207 120 17 26 25 240 207 120 240 207 120 19 138 91 19 138 91 19 138 91 19 138 91 19 138 91 240 207 120 240 207 120 240 207 120 240 207 120 240 207 120 240 207 120 240 207 120 19 138 91 19 138 91 19 138 91 19 138 91 19 138 91 240 207 120 240 207 120 17 26 25 240 207 120 240 207 120 240 207 120 17 26 25 17 26 25 17 26 25 17 26 25 17 26 25 17 26 25 17 26 25 17 26 25 17 26 25
17 26 25 17 26 25 17 26 25 17 26 25 17 26 25 17 26 25 17 26 25 17 26 25 17 26 25 17 26 25 240 207 120 240 207 120 240 207 120 17 26 25 240 207 120 240 207 120 19 138 91 19 138 91 19 138 91 19 138 91 19 138 91 240 207 120 240 207 120 240 207 120 240 207 120 240 207 120 240 207 120 240 207 120 19 138 91 19 138 91 19 138 91 19 138 91 19 138 91 240 207 120 240 207 120 17 26 25 240 207 120 240 207 120 240 207 120 17 26 25 17 26 25 17 26 25 17 26 25 17 26 25 17 26 25 17 26 25 17 26 25 17 26 25
17 26 25 17 26 25 17 26 25 17 26 25 17 26 25 17 26 25 17 26 25 17 26 25 17 26 25 17 26 25 240 207 120 240 207 120 240 207 120 17 26 25 17 26 25 240 207 120 240 207 120 19 138 91 19 138 91 19 138 91 19 138 91 240 207 120 240 207 120 240 207 120 240 207 120 240 207 120 240 207 120 240 207 120 19 138 91 19 138 91 19 138 91 19 138 91 240 207 120 240 207 120 17 26 25 17 26 25 240 207 120 240 207 120 240 207 120 17 26 25 17 26 25 17 26 25 17 26 25 17 26 25 17 26 25 17 26 25 17 26 25 17 26 25
17 26 25 17 26 25 17 26 25 17 26 25 17 26 25 17 26 25 17 26 25 17 26 25 17 26 25 17 26 25 240 207 120 240 207 120 240 207 120 17 26 25 17 26 25 240 207 120 240 207 120 240 207 120 19 138 91 19 138 91 19 138 91 240 207 120 240 207 120 240 207 120 240 207 120 240 207 120 240 207 120 240 207 120 19 138 91 19 138 91 240 207 120 240 207 120 240 207 120 240 207 120 17 26 25 17 26 25 240 207 120 240 207 120 240 207 120 17 26 25 17 26 25 17 26 25 17 26 25 17 26 25 17 26 25 17 26 25 17 26 25 17 26 25
17 26 25 17 26 25 17 26 25 17 26 25 17 26 25 17 26 25 17 26 25 17 26 25 17 26 25 17 26 25 240 207 120 240 207 120 240 207 120 17 26 25 17 26 25 17 26 25 240 207 120 240 207 120 240 207 120 19 138 91 19 138 91 240 207 120 240 207 120 240 207 120 240 207 120 240 207 120 240 207 120 240 207 120 19 138 91 19 138 91 240 207 120 240 207 120 240 207 120 240 207 120 17 26 25 17 26 25 240 207 120 240 207 120 240 207 120 17 26 25 17 26 25 17 26 25 17 26 25 17 26 25 17 26 25 17 26 25 17 26 25 17 26 25
17 26 25 17 26 25 17 26 25 17 26 25 17 26 25 17 26 25 17 26 25 17 26 25 17 26 25 17 26 25 240 207 120 240 207 120 240 207 120 17 26 25 17 26 25 17 26 25 17 26 25 240 207 120 240 207 120 240 207 120 19 138 91 240 207 120 240 207 120 240 207 120 240 207 120 240 207 120 240 207 120 240 207 120 19 138 91 240 207 120 240 207 120 240 207 120 240 207 120 240 207 120 240 207 120 17 26 25 240 207 120 240 207 120 240 207 120 17 26 25 17 26 25 17 26 25 17 26 25 17 26 25 17 26 25 17 26 25 17 26 25 17 26 25
17 26 25 17 26 25 17 26 25 17 26 25 17 26 25 17 26 25 17 26 25 17 26 25 17 26 25 17 26 25 240 207 120 240 207 120 240 207 120 17 26 25 17 26 25 17 26 25 17 26 25 17 26 25 240 207 120 240 207 120 240 207 120 240 207 120 240 207 120 240 207 120 19 138 91 240 207 120 240 207 120 240 207 120 240 207 120 240 207 120 240 207 120 240 207 120 240 207 120 240 207 120 240 207 120 240 207 120 240 207 120 240 207 120 240 207 120 17 26 25 17 26 25 17 26 25 17 26 25 17 26 25 17 26 25 17 26 25 17 26 25 17 26 25
17 26 25 17 26 25 17 26 25 17 26 25 17 26 25 17 26 25 17 26 25 17 26 25 17 26 25 17 26 25 240 207 120 240 207 120 240 207 120 17 26 25 17 26 25 17 26 25 17 26 25 17 26 25 17 26 25 17 26 25 240 207 120 240 207 120 240 207 120 240 207 120 240 207 120 240 207 120 240 207 120 240 207 120 240 207 120 17 26 25 17 26 25 17 26 25 240 207 120 240 207 120 240 207 120 240 207 120 240 207 120 240 207 120 240 207 120 17 26 25 17 26 25 17 26 25 17 26 25 17 26 25 17 26 25 17 26 25 17 26 25 17 26 25
17 26 25 17 26 25 17 26 25 17 26 25 17 26 25 17 26 25 17 26 25 17 26 25 17 26 25 17 26 25 240 207 120 240 207 120 240 207 120 17 26 25 17 26 25 17 26 25 17 26 25 17 26 25 17 26 25 17 26 25 17 26 25 17 26 25 17 26 25 17 26 25 17 26 25 17 26 25 17 26 25 17 26 25 17 26 25 17 26 25 17 26 25 17 26 25 17 26 25 240 207 120 240 207 120 240 207 120 240 207 120 240 207 120 240 207 120 17 26 25 17 26 25 17 26 25 17 26 25 17 26 25 17 26 25 17 26 25 17 26 25 17 26 25
17 26 25 17 26 25 17 26 25 17 26 25 17 26 25 17 26 25 17 26 25 17 26 25 17 26 25 17 26 25 240 207 120 240 207 120 240 207 120 17 26 25 17 26 25 17 26 25 17 26 25 17 26 25 17 26 25 17 26 25 17 26 25 17 26 25 17 26 25 17 26 25 17 26 25 17 26 25 17 26 25 17 26 25 17 26 25 17 26 25 17 26 25 17 26 25 17 26 25 17 26 25 240 207 120 240 207 120 240 207 120 240 207 120 240 207 120 17 26 25 17 26 25 17 26 25 240 207 120 240 207 120 240 207 120 17 26 25 17 26 25 17 26 25
17 26 25 17 26 25 17 26 25 17 26 25 17 26 25 17 26 25 17 26 25 17 26 25 17 26 25 17 26 25 240 207 120 240 207 120 240 207 120 17 26 25 17 26 25 17 26 25 17 26 25 17 26 25 17 26 25 17 26 25 17 26 25 17 26 25 17 26 25 17 26 25 17 26 25 17 26 25 17 26 25 17 26 25 17 26 25 17 26 25 17 26 25 17 26 25 17 26 25 17 26 25 17 26 25 240 207 120 240 207 120 240 207 120 240 207 120 240 207 120 17 26 25 240 207 120 240 207 120 240 207 120 240 207 120 17 26 25 17 26 25 17 26 25
17 26 25 17 26 25 17 26 25 17 26 25 17 26 25 17 26 25 17 26 25 17 26 25 17 26 25 17 26 25 240 207 120 240 207 120 240 207 120 17 26 25 17 26 25 17 26 25 17 26 25 17 26 25 17 26 25 17 26 25 17 26 25 17 26 25 17 26 25 17 26 25 17 26 25 17 26 25 17 26 25 17 26 25 17 26 25 17 26 25 17 26 25 17 26 25 17 26 25 17 26 25 17 26 25 17 26 25 240 207 120 240 207 120 240 207 120 240 207 120 240 207 120 240 207 120 240 207 120 240 207 120 240 207 120 17 26 25 17 26 25 17 26 25
17 26 25 17 26 25 17 26 25 17 26 25 17 26 25 17 26 25 17 26 25 17 26 25 17 26 25 17 26 25 240 207 120 240 207 120 240 207 120 240 207 120 240 207 120 240 207 120 240 207 120 240 207 120 240 207 120 240 207 120 240 207 120 240 207 120 240 207 120 240 207 120 240 207 120 240 207 120 240 207 120 240 207 120 240 207 120 240 207 120 240 207 120 240 207 120 240 207 120 240 207 120 240 207 120 240 207 120 240 207 120 240 207 120 240 207 120 240 207 120 240 207 120 240 207 120 240 207 120 240 207 120 17 26 25 17 26 25 17 26 25 17 26 25
17 26 25 17 26 25 17 26 25 17 26 25 17 26 25 17 26 25 17 26 25 17 26 25 17 26 25 17 26 25 240 207 120 240 207 120 240 207 120 240 207 120 240 207 120 240 207 120 240 207 120 240 207 120 240 207 120 240 207 120 240 207 120 240 207 120 240 207 120 240 207 120 240 207 120 240 207 120 240 207 120 240 207 120 240 207 120 240 207 120 240 207 120 240 207 120 240 207 120 240 207 120 240 207 120 240 207 120 240 207 120 240 207 120 240 207 120 240 207 120 240 207 120 240 207 120 240 207 120 17 26 25 17 26 25 17 26 25 17 26 25 17 26 25
17 26 25 17 26 25 17 26 25 17 26 25 17 26 25 17 26 25 17 26 25 17 26 25 17 26 25 17 26 25 240 207 120 240 207 120 240 207 120 240 207 120 240 207 120 240 207 120 240 207 120 240 207 120 240 207 120 240 207 120 240 207 120 240 207 120 240 207 120 240 207 120 240 207 120 240 207 120 240 207 120 240 207 120 240 207 120 240 207 120 240 207 120 240 207 120 240 207 120 240 207 120 240 207 120 240 207 120 240 207 120 240 207 120 240 207 120 240 207 120 240 207 120 240 207 120 17 26 25 17 26 25 17 26 25 17 26 25 17 26 25 17 26 25
17 26 25 17 26 25 17 26 25 17 26 25 17 26 25 17 26 25 17 26 25 17 26 25 17 26 25 17 26 25 17 26 25 17 26 25 17 26 25 17 26 25 17 26 25 17 26 25 17 26 25 17 26 25 17 26 25 17 26 25 17 26 25 17 26 25 17 26 25 17 26 25 17 26 25 17 26 25 17 26 25 17 26 25 17 26 25 17 26 25 17 26 25 17 26 25 17 26 25 17 26 25 17 26 25 17 26 25 17 26 25 17 26 25 17 26 25 17 26 25 17 26 25 17 26 25 17 26 25 17 26 25 17 26 25 17 26 25 17 26 25 17 26 25
17 26 25 17 26 25 17 26 25 17 26 25 17 26 25 17 26 25 17 26 25 17 26 25 17 26 25 17 26 25 17 26 25 17 26 25 17 26 25 17 26 25 17 26 25 17 26 25 17 26 25 17 26 25 17 26 25 17 26 25 17 26 25 17 26 25 17 26 25 17 26 25 17 26 25 17 26 25 17 26 25 17 26 25 17 26 25 17 26 25 17 26 25 17 26 25 17 26 25 17 26 25 17 26 25 17 26 25 17 26 25 17 26 25 17 26 25 17 26 25 17 26 25 17 26 25 17 26 25 17 26 25 17 26 25 17 26 25 17 26 25 17 26 25
17 26 25 17 26 25 17 26 25 17 26 25 17 26 25 17 26 25 17 26 25 17 26 25 17 26 25 17 26 25 17 26 25 17 26 25 17 26 25 17 26 25 17 26 25 17 26 25 17 26 25 17 26 25 17 26 25 17 26 25 17 26 25 17 26 25 17 26 25 17 26 25 17 26 25 17 26 25 17 26 25 17 26 25 17 26 25 17 26 25 17 26 25 17 26 25 17 26 25 17 26 25 17 26 25 17 26 25 17 26 25 17 26 25 17 26 25 17 26 25 17 26 25 17 26 25 17 26 25 17 26 25 17 26 25 17 26 25 17 26 25 17 26 25
17 26 25 17 26 25 17 26 25 17 26 25 17 26 25 17 26 25 17 26 25 17 26 25 17 26 25 17 26 25 17 26 25 17 26 25 17 26 25 17 26 25 17 26 25 17 26 25 17 26 25 17 26 25 17 26 25 17 26 25 17 26 25 17 26 25 17 26 25 17 26 25 17 26 25 17 26 25 17 26 25 17 26 25 17 26 25 17 26 25 17 26 25 17 26 25 17 26 25 17 26 25 17 26 25 17 26 25 17 26 25 17 26 25 17 26 25 17 26 25 17 26 25 17 26 25 17 26 25 17 26 25 17 26 25 17 26 25 17 26 25 17 26 25
17 26 25 17 26 25 17 26 25 17 26 25 17 26 25 17 26 25 17 26 25 17 26 25 17 26 25 17 26 25 17 26 25 17 26 25 17 26 25 17 26 25 17 26 25 17 26 25 17 26 25 17 26 25 17 26 25 17 26 25 17 26 25 17 26 25 17 26 25 17 26 25 17 26 25 17 26 25 17 26 25 17 26 25 17 26 25 17 26 25 17 26 25 17 26 25 17 26 25 17 26 25 17 26 25 17 26 25 17 26 25 17 26 25 17 26 25 17 26 25 17 26 25 17 26 25 17 26 25 17 26 25 17 26 25 17 26 25 17 26 25 17 26 25
17 26 25 17 26 25 17 26 25 17 26 25 17 26 25 17 26 25 17 26 25 17 26 25 17 26 25 17 26 25 17 26 25 17 26 25 17 26 25 17 26 25 17 26 25 17 26 25 17 26 25 17 26 25 17 26 25 17 26 25 17 26 25 17 26 25 17 26 25 17 26 25 17 26 25 17 26 25 17 26 25 17 26 25 17 26 25 17 26 25 17 26 25 17 26 25 17 26 25 17 26 25 17 26 25 17 26 25 17 26 25 17 26 25 17 26 25 17 26 25 17 26 25 17 26 25 17 26 25 17 26 25 17 26 25 17 26 25 17 26 25 17 26 25
